X: 217
T: Pentland Jig, the
M: 6/8
L: 1/8
Q:1/4=210
K:D % 2 sharps
% (c) SSF July 2006
F/2G/2|
"D"A3 "A7"AFG|"D"A2 f f2e|"G"dce dcB|"D"A2 F "D7"F2 A|
"G"B2 G G2B|"D"A2 F F2A|"E7"^G2 B E^GB|"A"cBA "A7"=GFG|
"D"A3 "A7"AFG|"D"A2 f f2e|"G"dce dcB|"D"A2 F "A7"F2 A|
"G"B2 G dcB|"D"Adf a2A|"Em"Bcd "A7"cde|"D"d3-d2||
F|
"Bm"B2 B B2 F|"Bm"Bcd "E7"dcB|"A"A2 A A2 E|"A"ABc cBA|
"G"B2 G G2 B|"D"A2 F F2A|"E7"^G2 B E^GB|"A"cBA "A7"=GFG|
"D"A3 "A7"AFG|"D"A2 f f2 e|"G"dce dcB|"D"A2F "D7"F2A|
"G"B2 G dcB|"D"Adf "B7"a2 A|"Em"bcd "A7"cde|"D"d3-d2||
%  <A name="D1X218">



